assets/svg/app/kwenta-full.svg

<svg width="100" height="16" viewBox="0 0 100 16" fill="none" xmlns="http://www.w3.org/2000/svg">
<path d="M8.26514 0L16.7395 5.13999V10.28L8.26514 5.13999V0Z" fill="url(#paint0_linear)"/>
<path d="M8.26514 15.9911L16.7395 10.9031V5.81494L8.26514 10.9031V15.9911Z" fill="url(#paint1_linear)"/>
<path d="M8.26514 0L0 5.13999V10.28L8.26514 5.13999V0Z" fill="url(#paint2_linear)"/>
<path d="M8.26514 15.9911L0 10.9031V5.81494L8.26514 10.9031V15.9911Z" fill="url(#paint3_linear)"/>
<path fill-rule="evenodd" clip-rule="evenodd" d="M26.9265 12.9971H28.3483V8.34846H28.349V7.12891H28.3483V2.86768H26.9265V12.9971ZM29.8563 8.34846H29.8557V7.12891H29.8563L32.4128 2.86768H33.9782L31.034 7.67412V7.70282L34.1649 12.9971H32.5564L29.8563 8.34846ZM43.6588 2.86768L41.6769 10.2997C41.5333 10.8593 41.4615 11.3758 41.4615 11.3758H41.4327C41.4327 11.3758 41.3753 10.8449 41.246 10.2997L39.4508 2.86768H37.9859L40.571 12.9971H42.2226L43.9748 6.42588C44.1471 5.78024 44.2764 4.99112 44.2764 4.99112H44.3051C44.3051 4.99112 44.4344 5.78024 44.6067 6.42588L46.3589 12.9971H48.0105L50.6675 2.86768H49.2026L47.3355 10.2997C47.1919 10.8449 47.1488 11.3758 47.1488 11.3758H47.1201C47.1201 11.3758 47.0483 10.8593 46.9046 10.2997L44.9227 2.86768H43.6588ZM61.6579 12.9971H55.5253V2.86768H61.4137V4.10157H56.9471V7.27239H60.5807V8.50628H56.9471V11.7632H61.6579V12.9971ZM66.7742 12.9971H68.196V6.42588C68.196 5.85198 68.0955 4.94808 68.0955 4.94808H68.1242C68.1242 4.94808 68.5982 5.86632 68.9716 6.42588L73.4956 12.9971H74.8887V2.86768H73.4669V9.45322C73.4669 10.0128 73.5674 10.9167 73.5674 10.9167H73.5387C73.5387 10.9167 73.0647 9.99843 72.6913 9.45322L68.1817 2.86768H66.7742V12.9971ZM84.2503 12.9971H82.8285V4.10157H79.3529V2.86768H87.7259V4.10157H84.2503V12.9971ZM97.6185 12.9971H99.0978L95.4499 2.86768H93.9562L90.3083 12.9971H91.7732L92.7636 10.1278L92.7633 10.1278L93.1519 8.90801L94.2865 5.69415C94.4589 5.17764 94.6887 4.25939 94.6887 4.25939H94.7174C94.7174 4.25939 94.9328 5.17764 95.1052 5.69415L96.2254 8.90801L96.2257 8.90796L96.6112 10.1199L97.6185 12.9971Z" fill="white"/>
<defs>
<linearGradient id="paint0_linear" x1="23.9659" y1="5.11133" x2="3.0685" y2="5.11133" gradientUnits="userSpaceOnUse">
<stop stop-color="#996939"/>
<stop offset="1" stop-color="#D0A875"/>
</linearGradient>
<linearGradient id="paint1_linear" x1="12.5023" y1="15.9911" x2="14.5563" y2="-3.47404" gradientUnits="userSpaceOnUse">
<stop stop-color="#272728"/>
<stop offset="1" stop-color="#4B4B4B"/>
</linearGradient>
<linearGradient id="paint2_linear" x1="8.31617" y1="2.1074" x2="0.00386123" y2="8.62647" gradientUnits="userSpaceOnUse">
<stop stop-color="#996939"/>
<stop offset="1" stop-color="#D0A875"/>
</linearGradient>
<linearGradient id="paint3_linear" x1="4.13256" y1="15.9911" x2="4.13256" y2="5.81494" gradientUnits="userSpaceOnUse">
<stop stop-color="#363636"/>
<stop offset="1" stop-color="#333232"/>
</linearGradient>
</defs>
</svg>

<svg viewBox="0 0 100 16" fill="none" xmlns="http://www.w3.org/2000/svg">
    <path d="M8.265 0l8.474 5.14v5.14L8.265 5.14V0z" fill="url(#paint0_linear)"/>
    <path d="M8.265 15.991l8.474-5.088V5.815l-8.474 5.088v5.088z" fill="url(#paint1_linear)"/>
    <path d="M8.265 0L0 5.14v5.14l8.265-5.14V0z" fill="url(#paint2_linear)"/>
    <path d="M8.265 15.991L0 10.903V5.815l8.265 5.088v5.088z" fill="url(#paint3_linear)"/>
    <path fill-rule="evenodd" clip-rule="evenodd" d="M26.927 12.997h1.421V8.348h.001v-5.48h-1.422v10.13zm2.93-4.649h-.001v-1.22l2.557-4.26h1.565l-2.944 4.806v.029l3.13 5.294h-1.608l-2.7-4.649zm13.802-5.48L41.677 10.3c-.144.56-.215 1.076-.215 1.076h-.03s-.057-.531-.186-1.076l-1.795-7.432h-1.465l2.585 10.13h1.652l1.752-6.572c.172-.646.301-1.435.301-1.435h.03s.128.79.3 1.435l1.753 6.571h1.651l2.657-10.13h-1.464L47.336 10.3a7.021 7.021 0 00-.187 1.076h-.029s-.072-.517-.215-1.076l-1.982-7.432h-1.264zm17.999 10.13h-6.133V2.867h5.889v1.234h-4.467v3.17h3.634v1.234h-3.634v3.257h4.71v1.234zm5.116 0h1.422V6.425c0-.574-.1-1.478-.1-1.478h.028s.474.918.848 1.478l4.524 6.571h1.393V2.867h-1.422v6.586c0 .56.1 1.464.1 1.464h-.028s-.474-.919-.848-1.464l-4.51-6.585h-1.407v10.13zm17.476 0h-1.42V4.101h-3.476V2.868h8.373v1.234H84.25v8.895zm13.368 0h1.48L95.45 2.867h-1.494l-3.648 10.13h1.465l.99-2.87.389-1.22 1.135-3.214a25.76 25.76 0 00.402-1.435h.028s.216.919.388 1.435l1.12 3.214.386 1.212 1.007 2.877z" fill="#fff"/>
    <defs>
        <linearGradient id="paint0_linear" x1="23.966" y1="5.111" x2="3.068" y2="5.111" gradientUnits="userSpaceOnUse">
            <stop stop-color="#996939"/>
            <stop offset="1" stop-color="#D0A875"/>
        </linearGradient>
        <linearGradient id="paint1_linear" x1="12.502" y1="15.991" x2="14.556" y2="-3.474" gradientUnits="userSpaceOnUse">
            <stop stop-color="#272728"/>
            <stop offset="1" stop-color="#4B4B4B"/>
        </linearGradient>
        <linearGradient id="paint2_linear" x1="8.316" y1="2.107" x2=".004" y2="8.626" gradientUnits="userSpaceOnUse">
            <stop stop-color="#996939"/>
            <stop offset="1" stop-color="#D0A875"/>
        </linearGradient>
        <linearGradient id="paint3_linear" x1="4.133" y1="15.991" x2="4.133" y2="5.815" gradientUnits="userSpaceOnUse">
            <stop stop-color="#363636"/>
            <stop offset="1" stop-color="#333232"/>
        </linearGradient>
    </defs>
</svg>
